X:1
T: Gay Gordon
C: R-36
M: C|
Z:
R: reel
K: G
D2|:\
"G"G3A B2AG| "C"cBcd e2c2| "G"B2g2    dedc| "D"B2A2 AcBA|
"G"G3A B2AG| "C"cBcd e2c2| "G"B2g2 "D"dedc| "G"B2G2 G4 :|
|:\
"G"g4 d4| g2d2 B2G2|    g2d2    dedc| "D"B2A2 d4|
"G"g4 d4| g2d2 B2G2| "C"c2e2 "D"A2dc| "G"B2A2 G4 :|
%
